X:1
T: The Lochmaben Hornpipe
C:
R:Reel
Q: 232
K:D
M:4/4
L:1/8
|:FE|D2 d2 d2 cd|ec Ac d2 de|fd fd ge ge|af df e2 FE|
D2 d2 d2 cd|ec Ac d2 cd|ef ed cB A^G|A2 A2 A2:|
|:fg|ag fe de dc|B2 G2 G2 ga|ba gf ef ed|c2 A2 A2 fg|
af af gb gb|af af gb gb|af bg fe dc|d2 d2 d2:|
